X: 2056
T: Âh Eder Neyler
C: Ahmet Avni Konuk
O: Turkey
F: http://compmusic.upf.edu/node/140
N: gulizar--kupe--duyek--ah_eder--ahmet_avni_konuk
N: makam= gulizar
N: form= kupe
N: usul= duyek = 8/4
M: 8/4
L: 1/16
K: C _2/4B ^3/4f  
Q: 1/4=57
%%MIDI tuningsystem comma53
z4 g8 g4 a4 g2f2 g3f e4  | z4 e8 a2e2 e4 e2d2 e3d c2d2  | \
w:  Âh  e der  *  *  ney  |  ler  fi *  râ *  *  kın  | 
c4 d2e2 d4 e4 e2=f2 e2f2 d6z2  | 
w:  *  la  *  *  se nin  *  *  *  ey   | 
z4 c'2b2 a4 g2f2 f2e2 ^2/4f2e2 e6z2  | \
w:  Gü *  *  li *  zâr    | 
z4 d2e2 d4 e4 e4 a4 e4 e2=f2  | 
w:  Has *  *  re tin *  le   | 
e2d2 d2_3/4e2 d2e2 d2c2 d2ef e2d2 dccB c4  | \
w:  *  *  kan  *  *  *  dö *  ker  *  *  *  *  mî  | 
z4 =f8 f2e2 e2d4e2 d2c2 B2A2  | 
w:  nâ yı  *  mey  *  *  leyl_  | 
G4 d2d2 d4 c2B2 B2A2 B2A2 A6z2  | |


